assets/images/dealMiner.svg

<svg height="90" viewBox="0 0 90 90" width="90" xmlns="http://www.w3.org/2000/svg" xmlns:xlink="http://www.w3.org/1999/xlink"><defs><linearGradient id="a" x1="28.376984%" x2="20.215747%" y1="8.654558%" y2="85.659339%"><stop offset="0" stop-color="#e9f6ff"/><stop offset="1" stop-color="#145cff"/></linearGradient><linearGradient id="b" x1="32.52939%" x2="32.52939%" y1="22.297869%" y2="90.916158%"><stop offset="0" stop-color="#e8f6ff"/><stop offset="1" stop-color="#145cff"/></linearGradient><circle id="c" cx="45" cy="45" r="45"/><filter id="d" height="207.2%" width="310.3%" x="-105.2%" y="-53.6%"><feGaussianBlur in="SourceGraphic" stdDeviation="15.9010601"/></filter><linearGradient id="e" x1="91.932993%" x2="40.614781%" y1="80.70657%" y2="41.953967%"><stop offset="0" stop-color="#398bef"/><stop offset="1" stop-color="#1c6afd"/></linearGradient><circle id="f" cx="37.96875" cy="37.96875" r="37.96875"/><filter id="g" height="223%" width="223%" x="-61.5%" y="-61.5%"><feGaussianBlur in="SourceGraphic" stdDeviation="9.22261484"/></filter><linearGradient id="h" x1="38.294633%" x2="45.425729%" y1="91.948885%" y2="0%"><stop offset="0" stop-color="#7caaff" stop-opacity=".4"/><stop offset="1" stop-color="#e9f9ff"/></linearGradient><filter id="i" height="180%" width="185.7%" x="-42.9%" y="-40%"><feGaussianBlur in="SourceGraphic" stdDeviation="5"/></filter><linearGradient id="j" x1="34.113467%" x2="6.440201%" y1="6.507149%" y2="79.970875%"><stop offset="0" stop-color="#e0f5ff"/><stop offset="1" stop-color="#8dc6ff"/></linearGradient><rect id="k" height="40" rx="10" width="40"/><filter id="l" height="192.3%" width="200%" x="-50%" y="-46.1%"><feGaussianBlur in="SourceGraphic" stdDeviation="4.44444444"/></filter><filter id="m" height="168.4%" width="170.8%" x="-35.4%" y="-34.2%"><feGaussianBlur in="SourceGraphic" stdDeviation="4.44444444"/></filter><mask id="n" fill="#fff"><use fill="#fff" fill-rule="evenodd" xlink:href="#c"/></mask><mask id="o" fill="#fff"><use fill="#fff" fill-rule="evenodd" xlink:href="#f"/></mask><mask id="p" fill="#fff"><use fill="#fff" fill-rule="evenodd" xlink:href="#k"/></mask></defs><g fill="none" fill-rule="evenodd"><circle cx="45" cy="45" fill="url(#a)" r="45"/><use fill="url(#b)" xlink:href="#c"/><path d="m61.6522083 0c7.8530828 21.9054272 13.7982495 39.4175306 17.8355001 52.5363102 6.0558759 19.6781695-35.3747804 26.1718734-24.0925596 35.0713996 11.2822207 8.8995262 43.4059494-26.717218 43.4059494-56.8896337 0-20.1149439-12.3829633-30.35430255-37.1488899-30.7180761z" fill="#00dbff" filter="url(#d)" mask="url(#n)" opacity=".6"/><g transform="translate(6.709364 6.576415)"><use fill="url(#e)" xlink:href="#f"/><circle cx="61.875" cy="22.5" fill="#00c7fe" filter="url(#g)" mask="url(#o)" opacity=".9" r="22.5"/><circle cx="37.96875" cy="37.96875" mask="url(#o)" r="37.03125" stroke="url(#h)" stroke-width="1.875"/></g><path d="m17.5 35h35v37.5h-35z" fill="#0948c0" filter="url(#i)" opacity=".48"/><g transform="translate(25 25)"><use fill="url(#j)" xlink:href="#k"/><path d="m31.1111111 46.6666667c7.3637967 0 13.3333333-5.9695367 13.3333333-13.3333334 0-6.9000873-6.6289465-18.3994455-9.8273198-14.9238992-.2149416.2335685-1.497965 3.4446755-1.6504053 3.8127881-2.420782 5.8457019-15.1889415 3.7473145-15.1889415 11.1111111 0 7.3637967 5.9695366 13.3333334 13.3333333 13.3333334z" fill="#a8eaff" filter="url(#l)" mask="url(#p)" opacity=".39"/><path d="m5.55555556 51.1111111c9.20474584 0 30.00000004-3.3333333 16.66666664-16.6666667-13.33333331-13.3333333-10.6556429-22.3141463-19.86038869-22.3141463-9.20474583 0-13.47294461 13.1094005-13.47294461 22.3141463 0 9.2047459 7.46192083 16.6666667 16.66666666 16.6666667z" fill="#2878f8" fill-opacity=".496221" filter="url(#m)" mask="url(#p)" opacity=".4"/><rect height="10" mask="url(#p)" rx="2.5" stroke="#1c6afd" stroke-width="2.5" width="10" x="7.5" y="7.5"/><path d="m27.5 8.75c1.9492403 0 3.5511217 1.4872202 3.7328336 3.38885l.0171664.36115v3.75c0 .6903559-.5596441 1.25-1.25 1.25s-1.25-.5596441-1.25-1.25v-3.75c0-.6136497-.4421879-1.1240209-1.0253109-1.2298608l-.2246891-.0201392h-3.75c-.6903559 0-1.25-.5596441-1.25-1.25 0-.69035594.5596441-1.25 1.25-1.25zm-13.75 22.5c-1.9492403 0-3.5511217-1.4872202-3.7328336-3.38885l-.0171664-.36115v-3.75c0-.6903559.5596441-1.25 1.25-1.25s1.25.5596441 1.25 1.25v3.75c0 .6136497.4421879 1.1240209 1.0253109 1.2298608l.2246891.0201392h2.5c.6903559 0 1.25.5596441 1.25 1.25s-.5596441 1.25-1.25 1.25z" fill="#1c6afd" fill-rule="nonzero" mask="url(#p)"/><rect height="10" mask="url(#p)" rx="2.5" stroke="#1c6afd" stroke-width="2.5" width="10" x="22.5" y="22.5"/></g></g></svg>

<?xml version="1.0" encoding="UTF-8"?>
<svg width="90px" height="90px" viewBox="0 0 90 90" version="1.1" xmlns="http://www.w3.org/2000/svg" xmlns:xlink="http://www.w3.org/1999/xlink">
    <defs>
        <linearGradient x1="28.3769842%" y1="8.65455822%" x2="20.2157474%" y2="85.6593386%" id="linearGradient-1">
            <stop stop-color="#E9F6FF" offset="0%"></stop>
            <stop stop-color="#145CFF" offset="100%"></stop>
        </linearGradient>
        <linearGradient x1="32.5293899%" y1="22.2978692%" x2="32.5293899%" y2="90.9161583%" id="linearGradient-2">
            <stop stop-color="#E8F6FF" offset="0%"></stop>
            <stop stop-color="#145CFF" offset="100%"></stop>
        </linearGradient>
        <circle id="path-3" cx="45" cy="45" r="45"></circle>
        <filter x="-105.2%" y="-53.6%" width="310.3%" height="207.2%" filterUnits="objectBoundingBox" id="filter-5">
            <feGaussianBlur stdDeviation="15.9010601" in="SourceGraphic"></feGaussianBlur>
        </filter>
        <linearGradient x1="91.9329931%" y1="80.7065702%" x2="40.6147814%" y2="41.9539673%" id="linearGradient-6">
            <stop stop-color="#398BEF" offset="0%"></stop>
            <stop stop-color="#1C6AFD" offset="100%"></stop>
        </linearGradient>
        <circle id="path-7" cx="37.96875" cy="37.96875" r="37.96875"></circle>
        <filter x="-61.5%" y="-61.5%" width="223.0%" height="223.0%" filterUnits="objectBoundingBox" id="filter-9">
            <feGaussianBlur stdDeviation="9.22261484" in="SourceGraphic"></feGaussianBlur>
        </filter>
        <linearGradient x1="38.294633%" y1="91.9488845%" x2="45.4257286%" y2="0%" id="linearGradient-10">
            <stop stop-color="#7CAAFF" stop-opacity="0.4" offset="0%"></stop>
            <stop stop-color="#E9F9FF" offset="100%"></stop>
        </linearGradient>
        <filter x="-42.9%" y="-40.0%" width="185.7%" height="180.0%" filterUnits="objectBoundingBox" id="filter-11">
            <feGaussianBlur stdDeviation="5" in="SourceGraphic"></feGaussianBlur>
        </filter>
        <linearGradient x1="34.1134674%" y1="6.50714871%" x2="6.4402008%" y2="79.9708745%" id="linearGradient-12">
            <stop stop-color="#E0F5FF" offset="0%"></stop>
            <stop stop-color="#8DC6FF" offset="100%"></stop>
        </linearGradient>
        <rect id="path-13" x="0" y="0" width="40" height="40" rx="10"></rect>
        <filter x="-50.0%" y="-46.1%" width="200.0%" height="192.3%" filterUnits="objectBoundingBox" id="filter-15">
            <feGaussianBlur stdDeviation="4.44444444" in="SourceGraphic"></feGaussianBlur>
        </filter>
        <filter x="-35.4%" y="-34.2%" width="170.8%" height="168.4%" filterUnits="objectBoundingBox" id="filter-16">
            <feGaussianBlur stdDeviation="4.44444444" in="SourceGraphic"></feGaussianBlur>
        </filter>
    </defs>
    <g id="页面-1" stroke="none" stroke-width="1" fill="none" fill-rule="evenodd">
        <g id="h5所需要icon" transform="translate(-122.000000, -93.000000)">
            <g id="编组-30" transform="translate(122.000000, 93.000000)">
                <circle id="椭圆形" fill="url(#linearGradient-1)" cx="45" cy="45" r="45"></circle>
                <g id="路径-6">
                    <mask id="mask-4" fill="white">
                        <use xlink:href="#path-3"></use>
                    </mask>
                    <use id="蒙版" fill="url(#linearGradient-2)" xlink:href="#path-3"></use>
                    <path d="M61.6522083,9.29256672e-13 C69.5052911,21.9054272 75.4504578,39.4175306 79.4877084,52.5363102 C85.5435843,72.2144797 44.112928,78.7081836 55.3951488,87.6077098 C66.6773695,96.507236 98.8010982,60.8904918 98.8010982,30.7180761 C98.8010982,10.6031322 86.4181349,0.363773554 61.6522083,9.29256672e-13 Z" fill="#00DBFF" opacity="0.6" filter="url(#filter-5)" mask="url(#mask-4)"></path>
                </g>
                <g id="椭圆形" transform="translate(6.709364, 6.576415)">
                    <mask id="mask-8" fill="white">
                        <use xlink:href="#path-7"></use>
                    </mask>
                    <use id="蒙版" fill="url(#linearGradient-6)" xlink:href="#path-7"></use>
                    <circle fill="#00C7FE" opacity="0.9" filter="url(#filter-9)" mask="url(#mask-8)" cx="61.875" cy="22.5" r="22.5"></circle>
                    <circle id="蒙版" stroke="url(#linearGradient-10)" stroke-width="1.875" mask="url(#mask-8)" cx="37.96875" cy="37.96875" r="37.03125"></circle>
                </g>
                <rect id="矩形" fill="#0948C0" opacity="0.48" filter="url(#filter-11)" x="17.5" y="35" width="35" height="37.5"></rect>
                <g id="编组-6" transform="translate(25.000000, 25.000000)">
                    <mask id="mask-14" fill="white">
                        <use xlink:href="#path-13"></use>
                    </mask>
                    <use id="蒙版" fill="url(#linearGradient-12)" xlink:href="#path-13"></use>
                    <path d="M31.1111111,46.6666667 C38.4749078,46.6666667 44.4444444,40.69713 44.4444444,33.3333333 C44.4444444,26.433246 37.8154979,14.9338878 34.6171246,18.4094341 C34.402183,18.6430026 33.1191596,21.8541096 32.9667193,22.2222222 C30.5459373,28.0679241 17.7777778,25.9695367 17.7777778,33.3333333 C17.7777778,40.69713 23.7473144,46.6666667 31.1111111,46.6666667 Z" id="椭圆形" fill="#A8EAFF" opacity="0.39" filter="url(#filter-15)" mask="url(#mask-14)"></path>
                    <path d="M5.55555556,51.1111111 C14.7603014,51.1111111 35.5555556,47.7777778 22.2222222,34.4444444 C8.88888889,21.1111111 11.5665793,12.1302981 2.36183351,12.1302981 C-6.84291232,12.1302981 -11.1111111,25.2396986 -11.1111111,34.4444444 C-11.1111111,43.6491903 -3.64919027,51.1111111 5.55555556,51.1111111 Z" id="椭圆形备份" fill-opacity="0.496220942" fill="#2878F8" opacity="0.4" filter="url(#filter-16)" mask="url(#mask-14)"></path>
                    <rect id="矩形" stroke="#1C6AFD" stroke-width="2.5" mask="url(#mask-14)" x="7.5" y="7.5" width="10" height="10" rx="2.5"></rect>
                    <path d="M27.5,8.75 C29.4492403,8.75 31.0511217,10.2372202 31.2328336,12.13885 L31.25,12.5 L31.25,16.25 C31.25,16.9403559 30.6903559,17.5 30,17.5 C29.3096441,17.5 28.75,16.9403559 28.75,16.25 L28.75,12.5 L28.75,12.5 C28.75,11.8863503 28.3078121,11.3759791 27.7246891,11.2701392 L27.5,11.25 L23.75,11.25 C23.0596441,11.25 22.5,10.6903559 22.5,10 C22.5,9.30964406 23.0596441,8.75 23.75,8.75 L27.5,8.75 L27.5,8.75 Z M13.75,31.25 C11.8007597,31.25 10.1988783,29.7627798 10.0171664,27.86115 L10,27.5 L10,23.75 C10,23.0596441 10.5596441,22.5 11.25,22.5 C11.9403559,22.5 12.5,23.0596441 12.5,23.75 L12.5,27.5 L12.5,27.5 C12.5,28.1136497 12.9421879,28.6240209 13.5253109,28.7298608 L13.75,28.75 L16.25,28.75 C16.9403559,28.75 17.5,29.3096441 17.5,30 C17.5,30.6903559 16.9403559,31.25 16.25,31.25 L13.75,31.25 L13.75,31.25 Z" id="路径" fill="#1C6AFD" fill-rule="nonzero" mask="url(#mask-14)"></path>
                    <rect id="矩形备份-3" stroke="#1C6AFD" stroke-width="2.5" mask="url(#mask-14)" x="22.5" y="22.5" width="10" height="10" rx="2.5"></rect>
                </g>
            </g>
        </g>
    </g>
</svg>
